X:1
T:[ID 7-4]
T:[ID 7-4]
T:Bezeichnung standardisiert: Menuet [mit Trio] Menuet Con Trio No
T:Urheber unbekannt Datum in der hier transkribierten schriftlichen Quelle: 1776 - 1791
C:Urheber unbekannt
C:Datum in der hier transkribierten schriftlichen Quelle: 1776 - 1791
L:1/8
M:3/4
K:D
V:1 treble 
V:1
 d2 d2 (3cde | d2 d2 (3efg | f2 f2 (3efg | f2 fagb |{b} a2 gfed |{d} c4 d2 | df/a/{a} g2{g} f2 | %7
{f} e6 :: fg a2 gf | g2 A,B,CB, | A,2 efge | f2 DEFE | Da a4 | bgecdA | (3BAG F2 E2 |{E} D6 :| %16
[K:G][M:3/4]"^Trio" !fermata!g2 g2 (3agf | g2 g2 (3agf | g2 GB dg |{d} c4 B2 | D2 DDDD |{d} c4 B2 | %22
 f2 g2 aA | d6 :: d2 d2 ed | c2 eg b2 | c2 c2 Ac | BGBd g2 | D2 DDDD | c4 B2 | (3BAB (3cBc dF | %31
 G6 :| %32

